src/general/components/img/hide_pwd.svg

<svg height="50" viewBox="0 0 50 50" width="50" xmlns="http://www.w3.org/2000/svg"><g fill="#fff" fill-rule="evenodd" transform="translate(1 4)"><path d="m46.0139273 18.1610422c1.5812219 1.8460716 1.5812219 4.6010748 0 6.4471464-7.7049481 8.9618301-15.3278948 12.507196-22.0139533 12.507196-6.6860586 0-14.30900534-3.5453659-22.01437018-12.5076817-1.58080509-1.8455859-1.58080509-4.6005891.00041675-6.4466607 7.70494809-8.96183009 15.32789483-12.50719605 22.01395343-12.50719605 6.6860585 0 14.3090052 3.54536596 22.0139533 12.50719605zm-2.4351634 4.2733998c.514191-.6003918.514191-1.4992615 0-2.0996532-5.6339405-6.5476902-12.4905812-11.38283967-19.5787639-11.38283967s-13.9448234 4.83514947-19.57824357 11.38223347c-.51471131.6009979-.51471131 1.4998676-.00052034 2.1002594 5.63394051 6.5476902 12.49058121 11.3828396 19.57876391 11.3828396s13.9448234-4.8351494 19.5787639-11.3828396z" fill-rule="nonzero"/><path d="m24.2987162 12.9231101c2.2191869-.0059207 4.3489379.8780893 5.9216365 2.4575527 1.5726986 1.5794635 2.4595163 3.7249976 2.4653627 5.9655224-.0000644 4.6461202-3.7263556 8.4147934-8.3282209 8.4229443-4.6018653.0081508-8.3412307-3.747299-8.3574416-8.3933904s3.6968553-8.4280464 8.2986633-8.452629zm.0042806 14.0170945c1.4743776.0064117 2.891727-.5797136 3.9387112-1.6292147 1.0469842-1.049501 1.6376726-2.4762404 1.641891-3.9648024-.0000791-3.0842339-2.4726975-5.5865134-5.5275491-5.5938565s-5.5392436 2.483021-5.5538689 5.5672196c-.0146253 3.0841985 2.4460346 5.5984653 5.5008158 5.620654z" fill-rule="nonzero"/><rect height="48.461539" rx="1.8" transform="matrix(.81915204 .57357644 -.57357644 .81915204 16.421626 -10.082743)" width="3.6" x="22.4" y="-3.230769"/></g></svg>

<?xml version="1.0" encoding="UTF-8"?>
<svg width="50px" height="50px" viewBox="0 0 50 50" version="1.1" xmlns="http://www.w3.org/2000/svg" xmlns:xlink="http://www.w3.org/1999/xlink">
    <!-- Generator: Sketch 48.2 (47327) - http://www.bohemiancoding.com/sketch -->
    <title>Artboard 4</title>
    <desc>Created with Sketch.</desc>
    <defs></defs>
    <g id="Symbols" stroke="none" stroke-width="1" fill="none" fill-rule="evenodd">
        <g id="Artboard-4" fill="#fff">
            <g id="Group" transform="translate(1.000000, 4.000000)">
                <path d="M46.0139273,18.1610422 C47.5951492,20.0071138 47.5951492,22.762117 46.0139273,24.6081886 C38.3089792,33.5700187 30.6860325,37.1153846 23.999974,37.1153846 C17.3139154,37.1153846 9.69096866,33.5700187 1.98560382,24.6077029 C0.404798728,22.762117 0.404798728,20.0071138 1.98602057,18.1610422 C9.69096866,9.19921211 17.3139154,5.65384615 23.999974,5.65384615 C30.6860325,5.65384615 38.3089792,9.19921211 46.0139273,18.1610422 Z M43.5787639,22.434442 C44.0929549,21.8340502 44.0929549,20.9351805 43.5787639,20.3347888 C37.9448234,13.7870986 31.0881827,8.95194913 24,8.95194913 C16.9118173,8.95194913 10.0551766,13.7870986 4.42175643,20.3341826 C3.90704512,20.9351805 3.90704512,21.8340502 4.42123609,22.434442 C10.0551766,28.9821322 16.9118173,33.8172816 24,33.8172816 C31.0881827,33.8172816 37.9448234,28.9821322 43.5787639,22.434442 Z" id="Shape" fill-rule="nonzero"></path>
                <path d="M24.2987162,12.9231101 C26.5179031,12.9171894 28.6476541,13.8011994 30.2203527,15.3806628 C31.7930513,16.9601263 32.679869,19.1056604 32.6857154,21.3461852 C32.685651,25.9923054 28.9593598,29.7609786 24.3574945,29.7691295 C19.7556292,29.7772803 16.0162638,26.0218305 16.0000529,21.3757391 C15.983842,16.7296477 19.6969082,12.9476927 24.2987162,12.9231101 Z M24.3029968,26.9402046 C25.7773744,26.9466163 27.1947238,26.360491 28.241708,25.3109899 C29.2886922,24.2614889 29.8793806,22.8347495 29.883599,21.3461875 C29.8835199,18.2619536 27.4109015,15.7596741 24.3560499,15.752331 C21.3011983,15.7449879 18.8168063,18.235352 18.802181,21.3195506 C18.7875557,24.4037491 21.2482156,26.9180159 24.3029968,26.9402046 Z" id="Shape" fill-rule="nonzero"></path>
                <rect id="Rectangle-32" transform="translate(24.200000, 21.000000) rotate(35.000000) translate(-24.200000, -21.000000) " x="22.4" y="-3.23076923" width="3.6" height="48.4615385" rx="1.8"></rect>
            </g>
        </g>
    </g>
</svg>
